assets/features/global-acquiring/visa.svg

<svg width="24" height="16" viewBox="0 0 24 16" fill="none" xmlns="http://www.w3.org/2000/svg">
<rect width="24" height="16" rx="4" fill="#1434CB"/>
<path d="M14.8638 4.81201C13.4921 4.81201 12.2661 5.52257 12.2661 6.83537C12.2661 8.34089 14.4403 8.44487 14.4403 9.20121C14.4403 9.51967 14.0751 9.80475 13.4514 9.80475C12.5662 9.80475 11.9045 9.40641 11.9045 9.40641L11.6215 10.7312C11.6215 10.7312 12.3836 11.0677 13.3955 11.0677C14.8953 11.0677 16.0755 10.3222 16.0755 8.98697C16.0755 7.3961 13.8923 7.2952 13.8923 6.59321C13.8923 6.3437 14.1921 6.07037 14.814 6.07037C15.5158 6.07037 16.0883 6.36007 16.0883 6.36007L16.3654 5.08059C16.3654 5.08059 15.7424 4.81201 14.8638 4.81201ZM2.31325 4.90859L2.28003 5.10171C2.28003 5.10171 2.85715 5.20726 3.37694 5.41782C4.04619 5.65924 4.09389 5.7998 4.2066 6.23635L5.43484 10.9681H7.08135L9.6179 4.90859H7.97517L6.34529 9.02845L5.68021 5.53625C5.61922 5.13658 5.31025 4.90859 4.93207 4.90859H2.31325ZM10.2785 4.90859L8.98979 10.968H10.5563L11.8404 4.90857H10.2785V4.90859ZM19.0152 4.90859C18.6374 4.90859 18.4373 5.11068 18.2904 5.46383L15.9955 10.968H17.6382L17.956 10.0507H19.9573L20.1506 10.968H21.6L20.3355 4.90859H19.0152ZM19.2288 6.54567L19.7157 8.81947H18.4112L19.2288 6.54567Z" fill="white"/>
</svg>

<svg xmlns="http://www.w3.org/2000/svg" width="24" height="16" fill="none" viewBox="0 0 24 16"><rect width="24" height="16" fill="#1434cb" rx="4"/><path fill="#fff" d="M14.864 4.812c-1.372 0-2.598.71-2.598 2.023 0 1.506 2.174 1.61 2.174 2.366 0 .319-.365.604-.989.604-.885 0-1.546-.399-1.546-.399l-.284 1.325s.763.337 1.774.337c1.5 0 2.68-.746 2.68-2.081 0-1.59-2.183-1.692-2.183-2.394 0-.25.3-.523.922-.523.702 0 1.274.29 1.274.29l.277-1.28s-.623-.268-1.501-.268m-12.55.097-.034.193s.577.105 1.097.316c.67.241.717.382.83.818l1.228 4.732H7.08l2.537-6.06H7.975l-1.63 4.12-.665-3.492c-.06-.4-.37-.627-.748-.627zm7.964 0L8.99 10.968h1.566l1.284-6.06zm8.737 0c-.378 0-.578.202-.725.555l-2.294 5.504h1.642l.318-.917h2.001l.194.917H21.6l-1.265-6.06zm.214 1.637.487 2.273H18.41z"/></svg>
